icons/tag-chevron-left-outline.svg

<svg xmlns="http://www.w3.org/2000/svg" width="24" height="24" viewBox="0 0 24 24">
  <path d="M13,2 C13.2652165,2 13.5195704,2.10535684 13.7071068,2.29289322 L13.7071068,2.29289322 L21.2928932,9.87867966 C22.4644661,11.0502525 22.4644661,12.9497475 21.2928932,14.1213203 L21.2928932,14.1213203 L14.1213203,21.2928932 C12.9497475,22.4644661 11.0502525,22.4644661 9.87867966,21.2928932 L9.87867966,21.2928932 L2.29289322,13.7071068 C2.10535684,13.5195704 2,13.2652165 2,13 L2,13 L2,5 C2,3.34314575 3.34314575,2 5,2 L5,2 Z M12.585,4 L5,4 C4.44771525,4 4,4.44771525 4,5 L4,5 L4,12.585 L11.2928932,19.8786797 C11.6533772,20.2391636 12.2206082,20.2668932 12.6128994,19.9618683 L12.6128994,19.9618683 L12.7071068,19.8786797 L19.8786797,12.7071068 C20.2692039,12.3165825 20.2692039,11.6834175 19.8786797,11.2928932 L19.8786797,11.2928932 L12.585,4 Z M13.3871006,8.20970461 C13.7793918,7.90467972 14.3466228,7.93240926 14.7071068,8.29289322 L14.7071068,8.29289322 L14.7902954,8.38710056 C15.0953203,8.77939176 15.0675907,9.34662282 14.7071068,9.70710678 L14.7071068,9.70710678 L12.415,12 L14.7071068,14.2928932 L14.7902954,14.3871006 C15.0953203,14.7793918 15.0675907,15.3466228 14.7071068,15.7071068 C14.3165825,16.0976311 13.6834175,16.0976311 13.2928932,15.7071068 L13.2928932,15.7071068 L10.2928932,12.7071068 L10.2097046,12.6128994 C9.90467972,12.2206082 9.93240926,11.6533772 10.2928932,11.2928932 L10.2928932,11.2928932 L13.2928932,8.29289322 Z"/>
</svg>

<svg xmlns="http://www.w3.org/2000/svg" viewBox="0 0 24 24">
  <path d="M13 2a1 1 0 0 1 .7.3l7.6 7.58a3 3 0 0 1 0 4.24l-7.18 7.17a3 3 0 0 1-4.24 0l-7.59-7.58A1 1 0 0 1 2 13V5a3 3 0 0 1 3-3zm-.41 2H5a1 1 0 0 0-1 1v7.59l7.3 7.29a1 1 0 0 0 1.31.08l.1-.08 7.17-7.17a1 1 0 0 0 0-1.42L12.58 4zm.8 4.21a1 1 0 0 1 1.32.08l.08.1a1 1 0 0 1-.08 1.32L12.4 12l2.3 2.3.08.09a1 1 0 0 1-1.5 1.32l-3-3-.08-.1a1 1 0 0 1 .08-1.32l3-3z"/>
</svg>
